src/assets/img/Security/icons/addThingIcon.svg

<svg width="34" height="34" viewBox="0 0 34 34" fill="none" xmlns="http://www.w3.org/2000/svg">
<g id="Icon">
<g id="Union">
<path d="M8.5 4.25C6.15279 4.25 4.25 6.15279 4.25 8.5V11.6875C4.25 14.0347 6.15279 15.9375 8.5 15.9375H11.6875C14.0347 15.9375 15.9375 14.0347 15.9375 11.6875V8.5C15.9375 6.15279 14.0347 4.25 11.6875 4.25H8.5Z" fill="#CAFF33"/>
<path d="M22.3125 4.25C19.9653 4.25 18.0625 6.15279 18.0625 8.5V11.6875C18.0625 14.0347 19.9653 15.9375 22.3125 15.9375H25.5C27.8472 15.9375 29.75 14.0347 29.75 11.6875V8.5C29.75 6.15279 27.8472 4.25 25.5 4.25H22.3125Z" fill="#CAFF33"/>
<path d="M8.5 18.0625C6.15279 18.0625 4.25 19.9653 4.25 22.3125V25.5C4.25 27.8472 6.15279 29.75 8.5 29.75H11.6875C14.0347 29.75 15.9375 27.8472 15.9375 25.5V22.3125C15.9375 19.9653 14.0347 18.0625 11.6875 18.0625H8.5Z" fill="#CAFF33"/>
<path d="M24.9688 19.125C24.9688 18.5382 24.4931 18.0625 23.9062 18.0625C23.3194 18.0625 22.8438 18.5382 22.8438 19.125V22.8438H19.125C18.5382 22.8438 18.0625 23.3194 18.0625 23.9062C18.0625 24.4931 18.5382 24.9688 19.125 24.9688H22.8438V28.6875C22.8438 29.2743 23.3194 29.75 23.9062 29.75C24.4931 29.75 24.9688 29.2743 24.9688 28.6875V24.9688H28.6875C29.2743 24.9688 29.75 24.4931 29.75 23.9062C29.75 23.3194 29.2743 22.8438 28.6875 22.8438H24.9688V19.125Z" fill="#CAFF33"/>
</g>
</g>
</svg>

<svg width="34" height="34" fill="none" xmlns="http://www.w3.org/2000/svg"><g fill="#CAFF33"><path d="M8.5 4.25A4.25 4.25 0 0 0 4.25 8.5v3.188a4.25 4.25 0 0 0 4.25 4.25h3.188a4.25 4.25 0 0 0 4.25-4.25V8.5a4.25 4.25 0 0 0-4.25-4.25H8.5ZM22.313 4.25a4.25 4.25 0 0 0-4.25 4.25v3.188a4.25 4.25 0 0 0 4.25 4.25H25.5a4.25 4.25 0 0 0 4.25-4.25V8.5a4.25 4.25 0 0 0-4.25-4.25h-3.188ZM8.5 18.063a4.25 4.25 0 0 0-4.25 4.25V25.5a4.25 4.25 0 0 0 4.25 4.25h3.188a4.25 4.25 0 0 0 4.25-4.25v-3.188a4.25 4.25 0 0 0-4.25-4.25H8.5ZM24.969 19.125a1.063 1.063 0 0 0-2.125 0v3.719h-3.719a1.062 1.062 0 1 0 0 2.125h3.719v3.718a1.062 1.062 0 1 0 2.125 0V24.97h3.718a1.063 1.063 0 0 0 0-2.125H24.97v-3.719Z"/></g></svg>
